projects/flag-game/flags/Christmas Island.svg

<svg viewBox="0 0 1000 501" xmlns="http://www.w3.org/2000/svg"><g fill-rule="evenodd"><path d="m0 500v-500h1000v500zm0 0" fill="#0021ad"/><path d="m0 0 1000 500-.570312-499.628906zm0 0" fill="#1c8a42"/><path d="m591.320312 249.726562c0 23.648438-9.734374 47.148438-26.457031 63.867188-16.71875 16.71875-40.21875 26.453125-63.867187 26.453125-23.648438 0-47.148438-9.734375-63.867188-26.453125s-26.457031-40.21875-26.457031-63.867188c0-23.648437 9.738281-47.148437 26.457031-63.867187s40.21875-26.453125 63.867188-26.453125c23.648437 0 47.148437 9.734375 63.867187 26.453125 16.722657 16.71875 26.457031 40.21875 26.457031 63.867187zm0 0" fill="#ffc639"/><path d="m444.84375 209.421875c6.179688 8.488281 15.539062 22.691406 23.070312 18.988281 5.871094.015625 8.90625.433594 9.703126 4.339844 13.863281 2.363281 37.164062-3.488281 51.644531-22.359375 0 0 1.226562.15625.800781-7.015625.078125-3.132812 4.273438-2.5 4.375-1.488281.585938 1.550781.480469 2.71875 1.265625 2.757812 1.792969-.601562 4.234375-4.601562 6.273437-7.140625.5625-1.117187.253907-2.300781.386719-3.707031 1.074219-2.65625 3.765625-2.074219 4.335938-.6875.507812.894531.515625 1.589844 1.027343 2.480469 2.726563 1.816406 7.660157.121094 8.042969.121094.484375-2.226563 1.914063-2.015626 1.914063-2.015626 1.820312-.398437 1.109375-.238281 2.300781.386719-1.054687 12 2.359375 12.535157 2.082031 18.695313.121094 6.871094-2.082031 8.824218-2.082031 11.453125.699219 3.195312 10.835937 3.308593 7.265625 6.019531-3.132812 1.671875.019531 4.8125-4.707031 6.023438-13.71875 6.972656-16.351563 12.949218-16.351563 12.949218s-3.449218 6.515625-3.828125 6.515625c-2.304687 4.34375-5.21875 1.964844-6.835937 4.089844-.804688 2.660156-1.71875 8.554687-.097656 11.617187.804687 4.214844-.101563 6.507813-1.113282 10.722657-.90625 8.789062-4.390625 10.121093-4.796875 13.214843-1.613281 3.289063.34375 18.765626-1.191406 18.765626-10.21875.203124-18.054687-1.957032-22.09375-2.761719 3.941406-16.972657 2.414063-31.898438 2.414063-33.433594-1.011719-12.140625-18.199219-9.183594-20.820313-10.800781-2.183594-.460938-3.554687-2.238282-4.320313-3.007813-2.429687-.253906-3.339843-.816406-5.769531-1.066406-1.210937.601563-.476562 1.234375-3.183593 2.0625-6.851563.828125-9.882813-5.96875-9.882813-5.96875.339844-2.292969-15.40625.46875-23.960937-1.519531-3.507813 1.957031-5.039063 7.738281-7.914063 8.425781-.082031 1.792969-4.726563-1.472656-5.65625-3.234375-.203125-5.132812 4.46875-7.402344 4.46875-7.402344 3.703125-2.609375 5.90625-3.039062 7.691406-4.835937.894531-4.46875.445313-7.773438 2.347657-11.132813 1.613281-2.5625 3.992187-1.359375 5.601562-2.511718 1.738281-1.144532 2.464844-8.660157.871094-10.722657 0 0-6.933594-6.257812-7.320313-6.636719-2.253906-6.476562 2.636719-10.648437 4.042969-10.179687zm0 0" fill="#1c8a42"/><path d="m877.929688 97.554688c-4.09375-16.191407-40.71875-51.070313-68.242188-73.261719-6.578125-4.476563-10.859375-1.8125-10.003906 4.570312 3.425781 5.714844 5.996094 12 9.425781 17.71875.953125 3.808594 2.765625 6.472657 3.71875 10.28125 0 0 .28125 6.574219.859375 7.144531 8.570312 9.433594 9.710938 17.433594 9.710938 17.433594 4.957031 9.527344 9.335937 16.480469 18.003906 24.292969 9.714844 6.09375 2.566406 25.046875 2.855468 35.144531 0 6.386719-4.570312 5.625-8.570312 4.859375-31.527344-28.957031-62.773438-29.054687-90.300781-37.433593-10.761719-1.140626-10.953125 4-7.429688 6.855468 19.242188 20.578125 37.339844 34.582032 61.152344 46.292969 4 2.476563 8 4.957031 12.003906 7.433594 4.570313 3.808593 9.140625 7.617187 13.714844 11.429687 10.570313 6.855469 11.433594 13.144532 11.433594 13.710938.28125 12.863281-6.574219 22.863281-8.578125 26.867187-3.609375 13.636719-10.855469 16-10.855469 16-58.863281 39.722657-89.734375 50.011719-185.171875 37.71875-1.429688-.761719-10.578125.761719 0 4.578125 24.292969 8.09375 83.957031 21.074219 141.683594-6.261718 13.863281-9.722657 23.136718-6.535157 33.175781-12.347657 16.480469-10.167969 40.03125-22.828125 44.3125-24.253906 12.863281-6.859375 48.871094-14.574219 57.15625-21.4375 9.527344-.757813 19.394531-2.007813 20.058594-10.203125 3.132812-2.015625 7.703125-.542969 11.101562-7.210938 7.546875-1.3125 6.277344-4.019531 6.277344-4.019531-1.90625-5.332031-8.957031-7.523437-14-11.425781-7.433594-2.480469-12.574219-3.238281-18.007813-.570312-1.714843.761718-3.429687 1.523437-5.144531 2.285156 0 0-8-1.144532-8-1.714844-17.78125-.976562-16.050781-59.898438-22.339843-84.476562zm0 0" fill="#ffc639"/><path d="m919.617188 194.007812c-.480469 1.359376-2.921876 1.96875-5.113282 1.28125-2.199218-.695312-3.75-2.554687-3.265625-3.90625.484375-1.359374 2.925781-1.96875 5.125-1.273437 2.191407.6875 3.746094 2.546875 3.253907 3.898437zm0 0" fill="#1c8a42"/><g fill="#fff"><path d="m188.152344 190.9375-12.746094-11.933594-12.90625 11.773438 1.382812-17.414063-17.246093-2.75 14.472656-9.773437-8.605469-15.199219 16.667969 5.21875 6.515625-16.207031 6.308594 16.289062 16.738281-5.003906-8.804687 15.085938 14.351562 9.960937-17.285156 2.527344zm0 0"/><path d="m233.390625 335.539062-13.75-9.175781-13.394531 9.671875 4.710937-15.578125-13.578125-9.40625 16.660156-.453125 4.996094-15.488281 5.589844 15.296875 16.667969-.164062-13.207031 9.902343zm0 0"/><path d="m296.582031 275.96875-12.75-11.941406-12.90625 11.773437 1.382813-17.410156-17.246094-2.75 14.472656-9.777344-8.601562-15.199219 16.664062 5.226563 6.519532-16.207031 6.308593 16.289062 16.734375-5.011718-8.800781 15.089843 14.351563 9.960938-17.285157 2.527343zm0 0"/><path d="m76.089844 314.160156-12.75-11.933594-12.90625 11.773438 1.382812-17.414062-17.246094-2.75 14.472657-9.773438-8.601563-15.199219 16.664063 5.21875 6.515625-16.199219 6.308594 16.28125 16.734374-5.003906-8.796874 15.089844 14.347656 9.957031-17.285156 2.527344zm0 0"/><path d="m190.679688 460-12.753907-11.9375-12.902343 11.769531 1.382812-17.410156-17.25-2.75 14.476562-9.773437-8.609374-15.199219 16.671874 5.222656 6.515626-16.207031 6.308593 16.289062 16.734375-5.007812-8.796875 15.085937 14.34375 9.960938-17.28125 2.53125zm0 0"/></g></g></svg>

<?xml version="1.0" encoding="UTF-8"?>
<svg xmlns="http://www.w3.org/2000/svg" xmlns:xlink="http://www.w3.org/1999/xlink" viewBox="0 0 1000 501" version="1.1">
<g id="surface299">
<path style=" stroke:none;fill-rule:evenodd;fill:rgb(0%,12.940979%,67.842102%);fill-opacity:1;" d="M 0 500 L 0 0 L 1000 0 L 1000 500 Z M 0 500 "/>
<path style=" stroke:none;fill-rule:evenodd;fill:rgb(10.980225%,54.116821%,25.881958%);fill-opacity:1;" d="M 0 0 L 1000 500 L 999.429688 0.371094 Z M 0 0 "/>
<path style=" stroke:none;fill-rule:evenodd;fill:rgb(99.998474%,77.645874%,22.3526%);fill-opacity:1;" d="M 591.320312 249.726562 C 591.320312 273.375 581.585938 296.875 564.863281 313.59375 C 548.144531 330.3125 524.644531 340.046875 500.996094 340.046875 C 477.347656 340.046875 453.847656 330.3125 437.128906 313.59375 C 420.410156 296.875 410.671875 273.375 410.671875 249.726562 C 410.671875 226.078125 420.410156 202.578125 437.128906 185.859375 C 453.847656 169.140625 477.347656 159.40625 500.996094 159.40625 C 524.644531 159.40625 548.144531 169.140625 564.863281 185.859375 C 581.585938 202.578125 591.320312 226.078125 591.320312 249.726562 Z M 591.320312 249.726562 "/>
<path style=" stroke:none;fill-rule:evenodd;fill:rgb(10.980225%,54.116821%,25.881958%);fill-opacity:1;" d="M 444.84375 209.421875 C 451.023438 217.910156 460.382812 232.113281 467.914062 228.410156 C 473.785156 228.425781 476.820312 228.84375 477.617188 232.75 C 491.480469 235.113281 514.78125 229.261719 529.261719 210.390625 C 529.261719 210.390625 530.488281 210.546875 530.0625 203.375 C 530.140625 200.242188 534.335938 200.875 534.4375 201.886719 C 535.023438 203.4375 534.917969 204.605469 535.703125 204.644531 C 537.496094 204.042969 539.9375 200.042969 541.976562 197.503906 C 542.539062 196.386719 542.230469 195.203125 542.363281 193.796875 C 543.4375 191.140625 546.128906 191.722656 546.699219 193.109375 C 547.207031 194.003906 547.214844 194.699219 547.726562 195.589844 C 550.453125 197.40625 555.386719 195.710938 555.769531 195.710938 C 556.253906 193.484375 557.683594 193.695312 557.683594 193.695312 C 559.503906 193.296875 558.792969 193.457031 559.984375 194.082031 C 558.929688 206.082031 562.34375 206.617188 562.066406 212.777344 C 562.1875 219.648438 559.984375 221.601562 559.984375 224.230469 C 560.683594 227.425781 570.820312 227.539062 567.25 230.25 C 564.117188 231.921875 567.269531 235.0625 562.542969 236.273438 C 548.824219 243.246094 546.191406 249.222656 546.191406 249.222656 C 546.191406 249.222656 542.742188 255.738281 542.363281 255.738281 C 540.058594 260.082031 537.144531 257.703125 535.527344 259.828125 C 534.722656 262.488281 533.808594 268.382812 535.429688 271.445312 C 536.234375 275.660156 535.328125 277.953125 534.316406 282.167969 C 533.410156 290.957031 529.925781 292.289062 529.519531 295.382812 C 527.90625 298.671875 529.863281 314.148438 528.328125 314.148438 C 518.109375 314.351562 510.273438 312.191406 506.234375 311.386719 C 510.175781 294.414062 508.648438 279.488281 508.648438 277.953125 C 507.636719 265.8125 490.449219 268.769531 487.828125 267.152344 C 485.644531 266.691406 484.273438 264.914062 483.507812 264.144531 C 481.078125 263.890625 480.167969 263.328125 477.738281 263.078125 C 476.527344 263.679688 477.261719 264.3125 474.554688 265.140625 C 467.703125 265.96875 464.671875 259.171875 464.671875 259.171875 C 465.011719 256.878906 449.265625 259.640625 440.710938 257.652344 C 437.203125 259.609375 435.671875 265.390625 432.796875 266.078125 C 432.714844 267.871094 428.070312 264.605469 427.140625 262.84375 C 426.9375 257.710938 431.609375 255.441406 431.609375 255.441406 C 435.3125 252.832031 437.515625 252.402344 439.300781 250.605469 C 440.195312 246.136719 439.746094 242.832031 441.648438 239.472656 C 443.261719 236.910156 445.640625 238.113281 447.25 236.960938 C 448.988281 235.816406 449.714844 228.300781 448.121094 226.238281 C 448.121094 226.238281 441.1875 219.980469 440.800781 219.601562 C 438.546875 213.125 443.4375 208.953125 444.84375 209.421875 Z M 444.84375 209.421875 "/>
<path style=" stroke:none;fill-rule:evenodd;fill:rgb(99.998474%,77.645874%,22.3526%);fill-opacity:1;" d="M 877.929688 97.554688 C 873.835938 81.363281 837.210938 46.484375 809.6875 24.292969 C 803.109375 19.816406 798.828125 22.480469 799.683594 28.863281 C 803.109375 34.578125 805.679688 40.863281 809.109375 46.582031 C 810.0625 50.390625 811.875 53.054688 812.828125 56.863281 C 812.828125 56.863281 813.109375 63.4375 813.6875 64.007812 C 822.257812 73.441406 823.398438 81.441406 823.398438 81.441406 C 828.355469 90.96875 832.734375 97.921875 841.402344 105.734375 C 851.117188 111.828125 843.96875 130.78125 844.257812 140.878906 C 844.257812 147.265625 839.6875 146.503906 835.6875 145.738281 C 804.160156 116.78125 772.914062 116.683594 745.386719 108.304688 C 734.625 107.164062 734.433594 112.304688 737.957031 115.160156 C 757.199219 135.738281 775.296875 149.742188 799.109375 161.453125 C 803.109375 163.929688 807.109375 166.410156 811.113281 168.886719 C 815.683594 172.695312 820.253906 176.503906 824.828125 180.316406 C 835.398438 187.171875 836.261719 193.460938 836.261719 194.027344 C 836.542969 206.890625 829.6875 216.890625 827.683594 220.894531 C 824.074219 234.53125 816.828125 236.894531 816.828125 236.894531 C 757.964844 276.617188 727.09375 286.90625 631.65625 274.613281 C 630.226562 273.851562 621.078125 275.375 631.65625 279.191406 C 655.949219 287.285156 715.613281 300.265625 773.339844 272.929688 C 787.203125 263.207031 796.476562 266.394531 806.515625 260.582031 C 822.996094 250.414062 846.546875 237.753906 850.828125 236.328125 C 863.691406 229.46875 899.699219 221.753906 907.984375 214.890625 C 917.511719 214.132812 927.378906 212.882812 928.042969 204.6875 C 931.175781 202.671875 935.746094 204.144531 939.144531 197.476562 C 946.691406 196.164062 945.421875 193.457031 945.421875 193.457031 C 943.515625 188.125 936.464844 185.933594 931.421875 182.03125 C 923.988281 179.550781 918.847656 178.792969 913.414062 181.460938 C 911.699219 182.222656 909.984375 182.984375 908.269531 183.746094 C 908.269531 183.746094 900.269531 182.601562 900.269531 182.03125 C 882.488281 181.054688 884.21875 122.132812 877.929688 97.554688 Z M 877.929688 97.554688 "/>
<path style=" stroke:none;fill-rule:evenodd;fill:rgb(10.980225%,54.116821%,25.881958%);fill-opacity:1;" d="M 919.617188 194.007812 C 919.136719 195.367188 916.695312 195.976562 914.503906 195.289062 C 912.304688 194.59375 910.753906 192.734375 911.238281 191.382812 C 911.722656 190.023438 914.164062 189.414062 916.363281 190.109375 C 918.554688 190.796875 920.109375 192.65625 919.617188 194.007812 Z M 919.617188 194.007812 "/>
<path style=" stroke:none;fill-rule:evenodd;fill:rgb(99.998474%,99.998474%,99.998474%);fill-opacity:1;" d="M 188.152344 190.9375 L 175.40625 179.003906 L 162.5 190.777344 L 163.882812 173.363281 L 146.636719 170.613281 L 161.109375 160.839844 L 152.503906 145.640625 L 169.171875 150.859375 L 175.6875 134.652344 L 181.996094 150.941406 L 198.734375 145.9375 L 189.929688 161.023438 L 204.28125 170.984375 L 186.996094 173.511719 Z M 188.152344 190.9375 "/>
<path style=" stroke:none;fill-rule:evenodd;fill:rgb(99.998474%,99.998474%,99.998474%);fill-opacity:1;" d="M 233.390625 335.539062 L 219.640625 326.363281 L 206.246094 336.035156 L 210.957031 320.457031 L 197.378906 311.050781 L 214.039062 310.597656 L 219.035156 295.109375 L 224.625 310.40625 L 241.292969 310.242188 L 228.085938 320.144531 Z M 233.390625 335.539062 "/>
<path style=" stroke:none;fill-rule:evenodd;fill:rgb(99.998474%,99.998474%,99.998474%);fill-opacity:1;" d="M 296.582031 275.96875 L 283.832031 264.027344 L 270.925781 275.800781 L 272.308594 258.390625 L 255.0625 255.640625 L 269.535156 245.863281 L 260.933594 230.664062 L 277.597656 235.890625 L 284.117188 219.683594 L 290.425781 235.972656 L 307.160156 230.960938 L 298.359375 246.050781 L 312.710938 256.011719 L 295.425781 258.539062 Z M 296.582031 275.96875 "/>
<path style=" stroke:none;fill-rule:evenodd;fill:rgb(99.998474%,99.998474%,99.998474%);fill-opacity:1;" d="M 76.089844 314.160156 L 63.339844 302.226562 L 50.433594 314 L 51.816406 296.585938 L 34.570312 293.835938 L 49.042969 284.0625 L 40.441406 268.863281 L 57.105469 274.082031 L 63.621094 257.882812 L 69.929688 274.164062 L 86.664062 269.160156 L 77.867188 284.25 L 92.214844 294.207031 L 74.929688 296.734375 Z M 76.089844 314.160156 "/>
<path style=" stroke:none;fill-rule:evenodd;fill:rgb(99.998474%,99.998474%,99.998474%);fill-opacity:1;" d="M 190.679688 460 L 177.925781 448.0625 L 165.023438 459.832031 L 166.40625 442.421875 L 149.15625 439.671875 L 163.632812 429.898438 L 155.023438 414.699219 L 171.695312 419.921875 L 178.210938 403.714844 L 184.519531 420.003906 L 201.253906 414.996094 L 192.457031 430.082031 L 206.800781 440.042969 L 189.519531 442.574219 Z M 190.679688 460 "/>
</g>
</svg>
